src/symbolic/actions/pane-show-symbolic.svg

<svg xmlns="http://www.w3.org/2000/svg" height="16" width="16" enable-background="new"><defs><filter id="a" color-interpolation-filters="sRGB"><feBlend in2="BackgroundImage" mode="darken"/></filter></defs><path style="marker:none" d="M2 1v14h12V1H2zm1 1h10v12H3V2zm1 1v5l4-3v2h4V3H4zm0 5v5h8V9H8v2L4 8z" color="#5d656b" overflow="visible" fill="#5d656b" enable-background="accumulate"/></svg>

<?xml version="1.0" encoding="UTF-8" standalone="no"?>
<svg
   xmlns:osb="http://www.openswatchbook.org/uri/2009/osb"
   xmlns:dc="http://purl.org/dc/elements/1.1/"
   xmlns:cc="http://creativecommons.org/ns#"
   xmlns:rdf="http://www.w3.org/1999/02/22-rdf-syntax-ns#"
   xmlns:svg="http://www.w3.org/2000/svg"
   xmlns="http://www.w3.org/2000/svg"
   xmlns:sodipodi="http://sodipodi.sourceforge.net/DTD/sodipodi-0.dtd"
   xmlns:inkscape="http://www.inkscape.org/namespaces/inkscape"
   height="16"
   id="svg7384"
   style="enable-background:new"
   version="1.1"
   width="16"
   sodipodi:docname="pane-show-symbolic.svg"
   inkscape:version="0.92.4 (5da689c313, 2019-01-14)">
  <sodipodi:namedview
     pagecolor="#ffffff"
     bordercolor="#666666"
     borderopacity="1"
     objecttolerance="10"
     gridtolerance="10"
     guidetolerance="10"
     inkscape:pageopacity="0"
     inkscape:pageshadow="2"
     inkscape:window-width="1366"
     inkscape:window-height="711"
     id="namedview20"
     showgrid="false"
     inkscape:zoom="14.75"
     inkscape:cx="-1.0169492"
     inkscape:cy="8"
     inkscape:window-x="0"
     inkscape:window-y="27"
     inkscape:window-maximized="1"
     inkscape:current-layer="svg7384" />
  <metadata
     id="metadata90">
    <rdf:RDF>
      <cc:Work
         rdf:about="">
        <dc:format>image/svg+xml</dc:format>
        <dc:type
           rdf:resource="http://purl.org/dc/dcmitype/StillImage" />
        <dc:title>Moka Symbolic Icon Theme</dc:title>
      </cc:Work>
    </rdf:RDF>
  </metadata>
  <title
     id="title8473">Moka Symbolic Icon Theme</title>
  <defs
     id="defs7386">
    <linearGradient
       id="linearGradient5606"
       osb:paint="solid">
      <stop
         id="stop5608"
         offset="0"
         style="stop-color:#000000;stop-opacity:1;" />
    </linearGradient>
    <filter
       id="filter7554"
       style="color-interpolation-filters:sRGB">
      <feBlend
         id="feBlend7556"
         in2="BackgroundImage"
         mode="darken" />
    </filter>
  </defs>
  <g
     id="layer9"
     style="display:inline"
     transform="translate(-341.00023,-63.996643)" />
  <g
     id="layer10"
     style="display:inline;filter:url(#filter7554)"
     transform="translate(-341.00023,-63.996643)" />
  <g
     id="layer1"
     style="display:inline"
     transform="translate(-100.00003,-680.99664)" />
  <g
     id="layer14"
     style="display:inline"
     transform="translate(-341.00023,-63.996643)" />
  <g
     id="layer15"
     style="display:inline"
     transform="translate(-341.00023,-63.996643)" />
  <g
     id="g71291"
     style="display:inline"
     transform="translate(-341.00023,-63.996643)" />
  <g
     id="layer2"
     style="display:inline"
     transform="translate(-100.00003,-530.99664)" />
  <g
     id="g6058"
     style="display:inline"
     transform="translate(-100.00003,-530.99664)" />
  <g
     id="layer12"
     style="display:inline"
     transform="translate(-341.00023,-63.996643)">
    <path
       style="color:#bebebe;display:inline;overflow:visible;visibility:visible;fill:#bebebe;fill-opacity:1;fill-rule:nonzero;stroke:none;stroke-width:1;marker:none;enable-background:accumulate"
       d="M 2 1 L 2 3 L 2 13 L 2 15 L 4 15 L 14 15 L 14 13 L 14 3 L 14 1 L 12 1 L 4 1 L 2 1 z M 3 2 L 13 2 L 13 14 L 3 14 L 3 2 z M 4 3 L 4 8 L 8 5 L 8 7 L 12 7 L 12 3 L 4 3 z M 4 8 L 4 13 L 12 13 L 12 9 L 8 9 L 8 11 L 4 8 z "
       transform="translate(341.00023,63.996643)"
       id="path6001" />
  </g>
</svg>
